Numix-GalliumOS/24/status/battery-010-charging.svg

<?xml version="1.0" encoding="UTF-8" standalone="no"?>
<svg
   xmlns:dc="http://purl.org/dc/elements/1.1/"
   xmlns:cc="http://creativecommons.org/ns#"
   xmlns:rdf="http://www.w3.org/1999/02/22-rdf-syntax-ns#"
   xmlns:svg="http://www.w3.org/2000/svg"
   xmlns="http://www.w3.org/2000/svg"
   xmlns:sodipodi="http://sodipodi.sourceforge.net/DTD/sodipodi-0.dtd"
   xmlns:inkscape="http://www.inkscape.org/namespaces/inkscape"
   width="24"
   viewBox="0 0 24 24"
   height="24"
   id="svg2"
   version="1.1"
   inkscape:version="0.91 r"
   sodipodi:docname="gpm-battery-010-charging.svg">
  <metadata
     id="metadata14">
    <rdf:RDF>
      <cc:Work
         rdf:about="">
        <dc:format>image/svg+xml</dc:format>
        <dc:type
           rdf:resource="http://purl.org/dc/dcmitype/StillImage" />
        <dc:title />
      </cc:Work>
    </rdf:RDF>
  </metadata>
  <defs
     id="defs12" />
  <sodipodi:namedview
     pagecolor="#ffffff"
     bordercolor="#666666"
     borderopacity="1"
     objecttolerance="10"
     gridtolerance="10"
     guidetolerance="10"
     inkscape:pageopacity="0"
     inkscape:pageshadow="2"
     inkscape:window-width="1366"
     inkscape:window-height="747"
     id="namedview10"
     showgrid="false"
     inkscape:zoom="11.313709"
     inkscape:cx="2.2251907"
     inkscape:cy="8.161557"
     inkscape:window-x="0"
     inkscape:window-y="21"
     inkscape:window-maximized="1"
     inkscape:current-layer="svg2" />
  <path
     style="opacity:0.4;fill:#ececec;fill-opacity:1"
     d="M 9,4 9,6 6,6 6,20 18,20 18,6 15,6 15,4 9,4 Z m 5,3 -1,5 3,0 -6,7 1,-5 -3,0 6,-7 z"
     id="path6"
     inkscape:connector-curvature="0" />
  <path
     style="opacity:1;fill:#ff8000;fill-opacity:1"
     d="M 6,18.400391 6,20 l 12,0 0,-1.599609 -7.486328,0 L 10,19 10.119141,18.400391 6,18.400391 Z"
     id="path6-6"
     inkscape:connector-curvature="0" />
</svg>

<svg xmlns="http://www.w3.org/2000/svg" viewBox="0 0 24 24">
 <path d="m 9 4 0 2 -3 0 0 14 12 0 0 -14 -3 0 0 -2 -6 0 m 5 3 -1 5 3 0 -6 7 1 -5 -3 0 6 -7 z" style="fill:#ececec;opacity:0.4;fill-opacity:1"/>
 <path d="m 6 18.4 0 1.6 l 12 0 0 -1.6 -7.486 0 l -0.514 0.6 0.119 -0.6 -4.119 0" style="fill:#ff8000;opacity:1;fill-opacity:1"/>
</svg>
